assets/img/logos/tanodragon.svg

<svg enable-background="new 0 0 559.249 81.18" viewBox="0 0 559.249 81.18" xmlns="http://www.w3.org/2000/svg" xmlns:xlink="http://www.w3.org/1999/xlink"><linearGradient id="a" gradientUnits="userSpaceOnUse" x1="102.2983024" x2="355.6291984" y1="38.6395048" y2="38.6395048"><stop offset="0" stop-color="#f50019"/><stop offset=".2761" stop-color="#f66d19"/><stop offset=".4785" stop-color="#fbfa35"/><stop offset=".681" stop-color="#74b719"/><stop offset=".7914" stop-color="#17710a"/><stop offset=".8834" stop-color="#226887"/><stop offset="1" stop-color="#3262d9"/></linearGradient><path d="m559.249 75.466c0 3.154-2.15 5.714-4.801 5.714h-549.647c-2.651 0-4.801-2.56-4.801-5.714v-69.751c0-3.155 2.15-5.715 4.801-5.715h549.646c2.651 0 4.801 2.56 4.801 5.715v69.751z"/><path d="m51.418 40.2h-4.377l10.42-18.047c2.01-3.5 5.763-5.674 9.796-5.674h21.533l-2.189 3.791h-19.344c-2.683 0-5.179 1.449-6.511 3.774zm11.726-14.776c.843-1.473 2.419-2.389 4.113-2.389h17.747l.947-1.639h-18.693c-2.28 0-4.401 1.232-5.534 3.211l-9.004 15.593h1.893zm1.659 6.962h14.803l2.56-4.433.779-1.35 1.41-2.441h-17.097c-1.291 0-2.492.698-3.135 1.821l-8.208 14.216h4.377zm-33.636 0c-.003.031-.005.045-.003.045-.035.117-.194.453-.752 1.389-1.179 1.979-2.386 4.453-2.386 7.789 0 6.228 5.067 11.295 11.295 11.295h43.005l-4.464 7.732h4.377l3.506-6.074c.329-.554.503-1.19.503-1.839 0-1.991-1.619-3.61-3.61-3.61h-43.317c-4.138 0-7.504-3.366-7.504-7.504 0-2.275.74-3.984 1.852-5.848 1.034-1.736 1.294-2.335 1.294-3.555 0-1.991-1.619-3.61-3.61-3.61h-12.702l2.188 3.791h10.328zm51.47 13.961h-43.317c-2.612 0-4.737-2.126-4.737-4.738 0-1.443.397-2.645 1.462-4.432 1.145-1.921 1.685-3.038 1.685-4.972 0-3.515-2.86-6.376-6.376-6.376h-17.47l-.617-1.068-4.143 1.873 6.411 2.055-.705-1.221h16.522c2.612 0 4.737 2.126 4.737 4.737 0 1.471-.327 2.242-1.453 4.132-1.218 2.044-1.693 3.522-1.693 5.272 0 3.516 2.861 6.377 6.376 6.377h43.317c2.612 0 4.737 2.126 4.737 4.737 0 .851-.229 1.686-.665 2.423l-3.169 5.489h1.892l2.692-4.661c.582-.981.89-2.105.89-3.251.001-3.516-2.86-6.376-6.376-6.376zm-39.263 7.787h-4.377l-3.755 6.503h4.377zm-.56 6.502 3.754-6.503h-1.892l-3.754 6.503zm9.433-6.502h-4.377l-3.754 6.503h4.377zm30.39-12.705h-43.131c.023-.277.143-.693.763-1.735 1.348-2.26 2.378-4.248 2.378-7.489 0-6.228-5.066-11.295-11.295-11.295h-.297l-2.498 2.498-2.498-2.498h-11.846l2.189 3.791h14.95c4.138 0 7.503 3.366 7.503 7.503 0 2.29-.696 3.623-1.844 5.548-.961 1.614-1.302 2.622-1.302 3.855 0 1.991 1.62 3.61 3.61 3.61h43.317c4.138 0 7.504 3.366 7.504 7.503 0 1.344-.36 2.663-1.042 3.815l-2.366 4.097h4.377l1.262-2.187c1.019-1.732 1.558-3.711 1.558-5.726.002-6.223-5.064-11.29-11.292-11.29zm-50.335-20.999-3.745-3.744-3.744 3.744h1.739l2.006-2.006 2.006 2.006z" fill="#f50019"/><path d="m102.268 17.544h20.418c13.461 0 18.211 10.374 18.211 20.986 0 12.909-6.561 21.104-20.644 21.104h-17.985zm12.443 31.302h4.864c7.748 0 8.88-6.543 8.88-10.493 0-2.653-.792-10.022-9.785-10.022h-3.959zm30.427-31.302h23.699c7.069 0 13.178 4.068 13.178 12.025 0 4.362-1.923 8.96-6.051 10.552 3.394 1.357 5.485 5.246 5.938 10.493.169 2.063.225 7.074 1.357 9.019h-12.443c-.623-2.122-.849-4.302-1.018-6.484-.34-4.008-.68-8.193-5.6-8.193h-6.618v14.679h-12.442v-42.09zm12.443 18.392h6.504c2.319 0 5.486-.413 5.486-4.185 0-2.652-1.414-4.185-6.165-4.185h-5.825zm42.927-18.392h12.16l14.705 42.089h-12.895l-1.696-6.013h-12.84l-1.81 6.013h-12.499zm9.784 27.057-3.62-12.968h-.113l-3.902 12.968zm48.299 10.729c-2.772 3.713-7.069 5.304-11.48 5.304-11.935 0-19.287-9.667-19.287-21.633 0-16.033 10.803-22.459 19.909-22.459 10.293 0 16.798 5.836 18.607 15.739h-11.934c-.452-3.065-2.94-5.246-5.881-5.246-8.54 0-8.258 9.373-8.258 12.261 0 3.948 1.527 10.846 9.105 10.846 2.884 0 5.825-1.533 6.447-4.657h-5.485v-9.02h16.515v23.167h-7.862zm34.839-38.788c12.274 0 20.474 9.195 20.474 22.047s-8.201 22.047-20.474 22.047-20.475-9.195-20.475-22.047c0-12.851 8.202-22.047 20.475-22.047zm0 33.6c3.167 0 8.031-2.181 8.031-11.555 0-9.373-4.864-11.554-8.031-11.554s-8.031 2.181-8.031 11.554c-.001 9.374 4.864 11.555 8.031 11.555zm25.788-32.598h12.726l11.764 22.518h.113v-22.518h11.764v42.089h-12.104l-12.386-22.989h-.113v22.989h-11.764z" fill="url(#a)"/><g fill="#f50019"><path d="m413.972 26.498v34.137h-12.481v-34.137h-12.805v-10.754h38.092v10.754z"/><path d="m448.335 60.635-2.646-8.847h-12.541l-2.81 8.847h-11.667l14.452-44.892h15.193l14.682 44.892zm-12.743-18.647h7.574l-3.788-13.022z"/><path d="m503.018 60.635h-11.693l-12.82-19.835c-1.646-2.544-3.305-5.633-4.978-9.27.754 2.894 1.132 5.35 1.132 7.367v21.739h-11.66v-44.892h13.581l10.906 16.443c2.173 3.267 3.818 6.14 4.938 8.617-.733-3.836-1.098-7.761-1.098-11.774v-13.286h11.693v44.891z"/><path d="m528.219 61.326c-6.49 0-11.781-2.093-15.87-6.281-4.09-4.188-6.135-9.789-6.135-16.806 0-6.709 1.954-12.25 5.864-16.624s9.335-6.561 16.277-6.561c6.422 0 11.656 2.061 15.701 6.183 4.044 4.122 6.068 9.625 6.068 16.509 0 7.126-2.04 12.838-6.119 17.134-4.079 4.298-9.34 6.446-15.786 6.446zm-.067-10.195c2.388 0 4.107-1.014 5.156-3.042 1.047-2.027 1.571-5.738 1.571-11.132 0-7.805-2.152-11.708-6.456-11.708-4.643 0-6.964 4.451-6.964 13.352 0 8.353 2.231 12.53 6.693 12.53z"/><path d="m360.956 17.265v2.696h-.986v-2.696h-.702v-.849h2.391v.849z"/><path d="m365.638 16.416v3.544h-.966v-2.534l-.626 2.534h-.661l-.651-2.534v2.534h-.779v-3.544h1.359l.492 1.882.469-1.882z"/></g><path d="m376.637 66.126h11.205c.511 0 .973-.306 1.173-.776l8.813-20.762" fill="none" stroke="#f50019" stroke-miterlimit="10" stroke-width="1.1116"/><path d="m393.451 44.588-5.767 15.045-1.042-15.045" fill="none" stroke="#f50019" stroke-miterlimit="10" stroke-width="1.1116"/><path d="m376.637 62.653h7.851l-1.583-18.065" fill="none" stroke="#f50019" stroke-miterlimit="10" stroke-width="1.1116"/><path d="m374.518 46.325h-4.702c-.719 0-1.308-.588-1.308-1.308v-1.623c0-.719.588-1.308 1.308-1.308h4.702c1.165 0 2.119.954 2.119 2.119 0 1.167-.953 2.12-2.119 2.12z" fill="none" stroke="#f50019" stroke-miterlimit="10" stroke-width="1.1116"/><path d="m374.074 55.575h-5.689c-.87 0-1.582-.712-1.582-1.582v-1.963c0-.87.712-1.582 1.582-1.582h5.689c1.41 0 2.564 1.154 2.564 2.564-.001 1.409-1.154 2.563-2.564 2.563z" fill="none" stroke="#f50019" stroke-miterlimit="10" stroke-width="1.1116"/><path d="m361.504 59.503 3.456-21.476c.033-.202.207-.351.412-.351h8.884c3.615 0 6.743 2.825 6.793 6.44.023 1.691-.6 3.238-1.637 4.411 1.062 1.261 1.686 2.902 1.635 4.687-.109 3.818-3.423 6.773-7.243 6.773h-5.419c-.05 0-4.899 0-6.472 0-.257-.001-.449-.231-.409-.484z" fill="none" stroke="#f50019" stroke-miterlimit="10" stroke-width="1.1116"/></svg>

<?xml version="1.0" encoding="utf-8"?>
<svg enable-background="new 0 0 559.249 81.18" viewBox="0 0 559.249 81.18" xmlns="http://www.w3.org/2000/svg">
  <path d="m51.418 40.2h-4.377l10.42-18.047c2.01-3.5 5.763-5.674 9.796-5.674h21.533l-2.189 3.791h-19.344c-2.683 0-5.179 1.449-6.511 3.774zm11.726-14.776c.843-1.473 2.419-2.389 4.113-2.389h17.747l.947-1.639h-18.693c-2.28 0-4.401 1.232-5.534 3.211l-9.004 15.593h1.893zm1.659 6.962h14.803l2.56-4.433.779-1.35 1.41-2.441h-17.097c-1.291 0-2.492.698-3.135 1.821l-8.208 14.216h4.377zm-33.636 0c-.003.031-.005.045-.003.045-.035.117-.194.453-.752 1.389-1.179 1.979-2.386 4.453-2.386 7.789 0 6.228 5.067 11.295 11.295 11.295h43.005l-4.464 7.732h4.377l3.506-6.074c.329-.554.503-1.19.503-1.839 0-1.991-1.619-3.61-3.61-3.61h-43.317c-4.138 0-7.504-3.366-7.504-7.504 0-2.275.74-3.984 1.852-5.848 1.034-1.736 1.294-2.335 1.294-3.555 0-1.991-1.619-3.61-3.61-3.61h-12.702l2.188 3.791h10.328zm51.47 13.961h-43.317c-2.612 0-4.737-2.126-4.737-4.738 0-1.443.397-2.645 1.462-4.432 1.145-1.921 1.685-3.038 1.685-4.972 0-3.515-2.86-6.376-6.376-6.376h-17.47l-.617-1.068-4.143 1.873 6.411 2.055-.705-1.221h16.522c2.612 0 4.737 2.126 4.737 4.737 0 1.471-.327 2.242-1.453 4.132-1.218 2.044-1.693 3.522-1.693 5.272 0 3.516 2.861 6.377 6.376 6.377h43.317c2.612 0 4.737 2.126 4.737 4.737 0 .851-.229 1.686-.665 2.423l-3.169 5.489h1.892l2.692-4.661c.582-.981.89-2.105.89-3.251.001-3.516-2.86-6.376-6.376-6.376zm-39.263 7.787h-4.377l-3.755 6.503h4.377zm-.56 6.502 3.754-6.503h-1.892l-3.754 6.503zm9.433-6.502h-4.377l-3.754 6.503h4.377zm30.39-12.705h-43.131c.023-.277.143-.693.763-1.735 1.348-2.26 2.378-4.248 2.378-7.489 0-6.228-5.066-11.295-11.295-11.295h-.297l-2.498 2.498-2.498-2.498h-11.846l2.189 3.791h14.95c4.138 0 7.503 3.366 7.503 7.503 0 2.29-.696 3.623-1.844 5.548-.961 1.614-1.302 2.622-1.302 3.855 0 1.991 1.62 3.61 3.61 3.61h43.317c4.138 0 7.504 3.366 7.504 7.503 0 1.344-.36 2.663-1.042 3.815l-2.366 4.097h4.377l1.262-2.187c1.019-1.732 1.558-3.711 1.558-5.726.002-6.223-5.064-11.29-11.292-11.29zm-50.335-20.999-3.745-3.744-3.744 3.744h1.739l2.006-2.006 2.006 2.006z" style="fill: rgb(255, 255, 255);"/>
  <path d="m102.268 17.544h20.418c13.461 0 18.211 10.374 18.211 20.986 0 12.909-6.561 21.104-20.644 21.104h-17.985zm12.443 31.302h4.864c7.748 0 8.88-6.543 8.88-10.493 0-2.653-.792-10.022-9.785-10.022h-3.959zm30.427-31.302h23.699c7.069 0 13.178 4.068 13.178 12.025 0 4.362-1.923 8.96-6.051 10.552 3.394 1.357 5.485 5.246 5.938 10.493.169 2.063.225 7.074 1.357 9.019h-12.443c-.623-2.122-.849-4.302-1.018-6.484-.34-4.008-.68-8.193-5.6-8.193h-6.618v14.679h-12.442v-42.09zm12.443 18.392h6.504c2.319 0 5.486-.413 5.486-4.185 0-2.652-1.414-4.185-6.165-4.185h-5.825zm42.927-18.392h12.16l14.705 42.089h-12.895l-1.696-6.013h-12.84l-1.81 6.013h-12.499zm9.784 27.057-3.62-12.968h-.113l-3.902 12.968zm48.299 10.729c-2.772 3.713-7.069 5.304-11.48 5.304-11.935 0-19.287-9.667-19.287-21.633 0-16.033 10.803-22.459 19.909-22.459 10.293 0 16.798 5.836 18.607 15.739h-11.934c-.452-3.065-2.94-5.246-5.881-5.246-8.54 0-8.258 9.373-8.258 12.261 0 3.948 1.527 10.846 9.105 10.846 2.884 0 5.825-1.533 6.447-4.657h-5.485v-9.02h16.515v23.167h-7.862zm34.839-38.788c12.274 0 20.474 9.195 20.474 22.047s-8.201 22.047-20.474 22.047-20.475-9.195-20.475-22.047c0-12.851 8.202-22.047 20.475-22.047zm0 33.6c3.167 0 8.031-2.181 8.031-11.555 0-9.373-4.864-11.554-8.031-11.554s-8.031 2.181-8.031 11.554c-.001 9.374 4.864 11.555 8.031 11.555zm25.788-32.598h12.726l11.764 22.518h.113v-22.518h11.764v42.089h-12.104l-12.386-22.989h-.113v22.989h-11.764z" style="fill: rgb(255, 255, 255);"/>
  <path d="M 413.972 26.498 L 413.972 60.635 L 401.491 60.635 L 401.491 26.498 L 388.686 26.498 L 388.686 15.744 L 426.778 15.744 L 426.778 26.498 Z" style="fill: rgb(255, 255, 255);"/>
  <path d="M 448.335 60.635 L 445.689 51.788 L 433.148 51.788 L 430.338 60.635 L 418.671 60.635 L 433.123 15.743 L 448.316 15.743 L 462.998 60.635 Z M 435.592 41.988 L 443.166 41.988 L 439.378 28.966 Z" style="fill: rgb(255, 255, 255);"/>
  <path d="M 503.018 60.635 L 491.325 60.635 L 478.505 40.8 C 476.859 38.256 475.2 35.167 473.527 31.53 C 474.281 34.424 474.659 36.88 474.659 38.897 L 474.659 60.636 L 462.999 60.636 L 462.999 15.744 L 476.58 15.744 L 487.486 32.187 C 489.659 35.454 491.304 38.327 492.424 40.804 C 491.691 36.968 491.326 33.043 491.326 29.03 L 491.326 15.744 L 503.019 15.744 L 503.019 60.635 Z" style="fill: rgb(255, 255, 255);"/>
  <path d="M 528.219 61.326 C 521.729 61.326 516.438 59.233 512.349 55.045 C 508.259 50.857 506.214 45.256 506.214 38.239 C 506.214 31.53 508.168 25.989 512.078 21.615 C 515.988 17.241 521.413 15.054 528.355 15.054 C 534.777 15.054 540.011 17.115 544.056 21.237 C 548.1 25.359 550.124 30.862 550.124 37.746 C 550.124 44.872 548.084 50.584 544.005 54.88 C 539.926 59.178 534.665 61.326 528.219 61.326 Z M 528.152 51.131 C 530.54 51.131 532.259 50.117 533.308 48.089 C 534.355 46.062 534.879 42.351 534.879 36.957 C 534.879 29.152 532.727 25.249 528.423 25.249 C 523.78 25.249 521.459 29.7 521.459 38.601 C 521.459 46.954 523.69 51.131 528.152 51.131 Z" style="fill: rgb(255, 255, 255);"/>
  <path d="m376.637 66.126h11.205c.511 0 .973-.306 1.173-.776l8.813-20.762" stroke-miterlimit="10" stroke-width="1.1116" fill="none" style="stroke: rgb(255, 255, 255);"/>
  <path d="m393.451 44.588-5.767 15.045-1.042-15.045" stroke-miterlimit="10" stroke-width="1.1116" fill="none" style="stroke: rgb(255, 255, 255);"/>
  <path d="m376.637 62.653h7.851l-1.583-18.065" stroke-miterlimit="10" stroke-width="1.1116" fill="none" style="stroke: rgb(255, 255, 255);"/>
  <path d="m374.518 46.325h-4.702c-.719 0-1.308-.588-1.308-1.308v-1.623c0-.719.588-1.308 1.308-1.308h4.702c1.165 0 2.119.954 2.119 2.119 0 1.167-.953 2.12-2.119 2.12z" stroke-miterlimit="10" stroke-width="1.1116" fill="none" style="stroke: rgb(255, 255, 255);"/>
  <path d="m374.074 55.575h-5.689c-.87 0-1.582-.712-1.582-1.582v-1.963c0-.87.712-1.582 1.582-1.582h5.689c1.41 0 2.564 1.154 2.564 2.564-.001 1.409-1.154 2.563-2.564 2.563z" stroke-miterlimit="10" stroke-width="1.1116" fill="none" style="stroke: rgb(255, 255, 255);"/>
  <path d="m361.504 59.503 3.456-21.476c.033-.202.207-.351.412-.351h8.884c3.615 0 6.743 2.825 6.793 6.44.023 1.691-.6 3.238-1.637 4.411 1.062 1.261 1.686 2.902 1.635 4.687-.109 3.818-3.423 6.773-7.243 6.773h-5.419c-.05 0-4.899 0-6.472 0-.257-.001-.449-.231-.409-.484z" stroke-miterlimit="10" stroke-width="1.1116" fill="none" style="stroke: rgb(255, 255, 255);"/>
</svg>
